Collapse/img/game_icons/icon_rust_active.svg

<svg width="24" height="24" viewBox="0 0 24 24" fill="none" xmlns="http://www.w3.org/2000/svg">
<path fill-rule="evenodd" clip-rule="evenodd" d="M24 0H0V24H24V0ZM3.20486 9.86761L3.22953 14.7622L3.28755 14.7993C5.5837 13.965 7.73266 13.9657 7.73266 13.9657L7.7031 10.8288C5.87728 10.798 3.20486 9.86761 3.20486 9.86761ZM8.64526 10.7999L10.1172 10.7712L10.1466 13.9656H8.70413L8.64526 10.7999ZM11.5508 12.4097L12.5012 11.4186L13.4989 12.3749L12.5624 13.4123L11.5508 12.4097ZM11.0588 8.4528L14.2202 8.43843L14.2496 9.93307H11.1029L11.0588 8.4528ZM12.9265 15.0206L15.1762 12.8361L16.1467 13.9657L14.0293 16.0697L12.9265 15.0206ZM10.1448 3.0573L15.1526 3.03319C15.1526 3.03319 14.1566 5.7745 14.1251 7.55901L11.0773 7.57353C11.0773 7.57353 10.9604 5.35821 10.1068 3.11401L10.1448 3.0573ZM17.3642 20.567L20.8783 17.0797L20.864 17.0134C18.634 16.0223 16.9445 14.541 16.9445 14.541L14.8058 16.6633C16.0781 17.9435 17.3642 20.567 17.3642 20.567Z" fill="#D34145"/>
</svg>

<svg width="24" height="24" fill="none" xmlns="http://www.w3.org/2000/svg"><path fill-rule="evenodd" clip-rule="evenodd" d="M24 0H0v24h24V0zM3.205 9.868l.025 4.894.058.037c2.296-.834 4.445-.833 4.445-.833l-.03-3.137c-1.826-.031-4.498-.961-4.498-.961zm5.44.932l1.472-.029.03 3.195H8.704L8.645 10.8zm2.906 1.61l.95-.991.998.956-.937 1.037-1.011-1.002zm-.492-3.957l3.161-.015.03 1.495h-3.147l-.044-1.48zm1.868 6.568l2.25-2.185.97 1.13-2.118 2.104-1.102-1.05zM10.145 3.057l5.008-.024s-.996 2.741-1.028 4.526l-3.048.015s-.117-2.216-.97-4.46l.038-.057zm7.22 17.51l3.513-3.487-.014-.067c-2.23-.99-3.92-2.472-3.92-2.472l-2.138 2.122c1.272 1.28 2.558 3.904 2.558 3.904z" fill="#D34145"/></svg>
